symbols/web/surround_sound/materialsymbolsrounded/surround_sound_grad200fill1_24px.svg

<svg xmlns="http://www.w3.org/2000/svg" height="24" width="24"><path d="M12 15.5q1.45 0 2.475-1.025Q15.5 13.45 15.5 12q0-1.45-1.025-2.475Q13.45 8.5 12 8.5q-1.45 0-2.475 1.025Q8.5 10.55 8.5 12q0 1.45 1.025 2.475Q10.55 15.5 12 15.5Zm6 .95q.725-.95 1.088-2.1.362-1.15.362-2.35 0-1.2-.362-2.35Q18.725 8.5 18 7.55q-.35-.45-.925-.463-.575-.012-1 .413-.35.35-.35.837 0 .488.275.913.425.6.613 1.312.187.713.187 1.438t-.187 1.438q-.188.712-.613 1.312-.275.425-.275.912 0 .488.35.838.425.425 1 .413.575-.013.925-.463Zm-10.05.05q.35-.35.35-.838 0-.487-.275-.912-.425-.6-.625-1.312-.2-.713-.2-1.438t.2-1.438q.2-.712.625-1.312.275-.425.275-.913 0-.487-.35-.837-.425-.425-1-.413-.575.013-.925.463-.725.975-1.1 2.112Q4.55 10.8 4.55 12q0 1.2.375 2.337.375 1.138 1.1 2.113.35.45.925.463.575.012 1-.413ZM4 20.6q-1.1 0-1.875-.775-.775-.775-.775-1.875V6.05q0-1.1.775-1.875Q2.9 3.4 4 3.4h16q1.1 0 1.875.775.775.775.775 1.875v11.9q0 1.1-.775 1.875Q21.1 20.6 20 20.6Z"/></svg>

<svg xmlns="http://www.w3.org/2000/svg" height="24" width="24"><path d="M12 15.5Q13.45 15.5 14.475 14.475Q15.5 13.45 15.5 12Q15.5 10.55 14.475 9.525Q13.45 8.5 12 8.5Q10.55 8.5 9.525 9.525Q8.5 10.55 8.5 12Q8.5 13.45 9.525 14.475Q10.55 15.5 12 15.5ZM18 16.45Q18.725 15.5 19.088 14.35Q19.45 13.2 19.45 12Q19.45 10.8 19.088 9.65Q18.725 8.5 18 7.55Q17.65 7.1 17.075 7.087Q16.5 7.075 16.075 7.5Q15.725 7.85 15.725 8.337Q15.725 8.825 16 9.25Q16.425 9.85 16.613 10.562Q16.8 11.275 16.8 12Q16.8 12.725 16.613 13.438Q16.425 14.15 16 14.75Q15.725 15.175 15.725 15.662Q15.725 16.15 16.075 16.5Q16.5 16.925 17.075 16.913Q17.65 16.9 18 16.45ZM7.95 16.5Q8.3 16.15 8.3 15.662Q8.3 15.175 8.025 14.75Q7.6 14.15 7.4 13.438Q7.2 12.725 7.2 12Q7.2 11.275 7.4 10.562Q7.6 9.85 8.025 9.25Q8.3 8.825 8.3 8.337Q8.3 7.85 7.95 7.5Q7.525 7.075 6.95 7.087Q6.375 7.1 6.025 7.55Q5.3 8.525 4.925 9.662Q4.55 10.8 4.55 12Q4.55 13.2 4.925 14.337Q5.3 15.475 6.025 16.45Q6.375 16.9 6.95 16.913Q7.525 16.925 7.95 16.5ZM4 20.6Q2.9 20.6 2.125 19.825Q1.35 19.05 1.35 17.95V6.05Q1.35 4.95 2.125 4.175Q2.9 3.4 4 3.4H20Q21.1 3.4 21.875 4.175Q22.65 4.95 22.65 6.05V17.95Q22.65 19.05 21.875 19.825Q21.1 20.6 20 20.6Z"/></svg>
